logo.svg

<svg fill="none" height="67" viewBox="0 0 240 67" width="240" xmlns="http://www.w3.org/2000/svg"><path clip-rule="evenodd" d="m43.9304 5.76706h-7v-5.090913h20.2273v5.090913h-7v18.18184h-6.2273zm21.9233 18.18184h-6.3182v-23.272753h6.3182v9.090913h8.3636v-9.090913h6.3182v23.272753h-6.3182v-9.0909h-8.3636zm17.6818 0h16.7275v-5.0909h-10.4093v-4h9.5909v-5.09094h-9.5909v-4h10.4543v-5.090913h-16.7725zm46.8265-11.6364c0 7.2727-4.5 11.6364-11.591 11.6364h-8.954v-23.272753h8.863c7.182 0 11.682 4.363633 11.682 11.636353zm-14.227-6.27272v12.54542h2.409c3.455 0 5.455-1.4091 5.455-6.2727 0-4.86362-2-6.27272-5.637-6.27272zm21.727 17.90912 1.341-4.4546h7.682l1.341 4.4546h6.818l-7.682-23.272753h-8.636l-7.682 23.272753zm2.773-9.1818 2.318-7.68186h.182l2.318 7.68186zm16.651-14.090953h6.318v23.272753h-6.318zm9.312 23.272753h15.727v-5.0909h-9.409v-18.181853h-6.318zm21.653-7.3182-8.545-15.954553h7.045l4.546 9.454553h.182l4.545-9.454553h7.046l-8.546 15.954553v7.3182h-6.273zm-159.0791 33.3182c0 10-6.1875 16-15.9375 16h-12.312525v-32h12.187525c9.875 0 16.0625 6 16.0625 16zm-19.56252-8.625v17.25h3.31252c4.75 0 7.5-1.9375 7.5-8.625s-2.75-8.625-7.75-8.625zm46.58202 24.625h-23v-32h23.0625v7h-14.375v5.5h13.1875v7h-13.1875v5.5h14.3125zm4.3711 0h15.0625c6.9531 0 11.25-3.7969 11.25-9.0625 0-4.5157-3.3281-7.4688-7.4375-7.625v-.3125c3.7031-.7344 6.1875-3.4688 6.1875-7 0-4.875-3.875-8-11.1875-8h-13.875zm8.6875-6.9375v-6.75h4.1875c2.6406 0 4.25 1.25 4.25 3.5 0 2.1406-1.4531 3.25-4.375 3.25zm0-12.125v-6.125h3.6875c2.1563 0 3.75 1.0937 3.75 3.0625 0 1.9687-1.5937 3.0625-3.875 3.0625zm34.516 11.9375c2.984 0 5.125-2.1407 5.125-5.125v-19.75h8.687v20.5c0 7.3125-5.594 11.875-13.812 11.875-8.2816 0-13.8129-4.5625-13.8129-11.875v-20.5h8.6875v19.75c0 2.9843 2.1404 5.125 5.1254 5.125zm45.629-24.875h-8.688v16.75h-.25l-11.375-16.75h-7.375v32h8.688v-16.8125h.187l11.563 16.8125h7.25zm12.796 32h-8.687v-32h8.687v12.9375h.438l9.625-12.9375h10.125l-10.813 14.25 11.063 17.75h-10.375l-7.188-12-2.875 3.75zm22.766 0h23v-7h-14.312v-5.5h13.187v-7h-13.187v-5.5h14.375v-7h-23.063zm36.059 0h-8.688v-32h13.813c7.109 0 11.875 4.0625 11.875 10.875 0 4.4375-2.032 7.5468-5.438 9.1875l6.5 11.9375h-9.437l-5.625-10.5625h-3zm0-25.0625v7.75h3.062c3.047 0 4.875-1.0782 4.875-3.8125 0-2.75-1.828-3.9375-4.875-3.9375z" fill="#000" fill-rule="evenodd"/></svg>

<svg width="240" height="67" viewBox="0 0 240 67" fill="none" xmlns="http://www.w3.org/2000/svg">
<path fill-rule="evenodd" clip-rule="evenodd" d="M43.9304 5.76706H36.9304V0.676147H57.1577V5.76706H50.1577V23.9489H43.9304V5.76706ZM65.8537 23.9489H59.5355V0.676147H65.8537V9.76706H74.2173V0.676147H80.5355V23.9489H74.2173V14.858H65.8537V23.9489ZM83.5355 23.9489H100.263V18.858H89.8537V14.858H99.4446V9.76706H89.8537V5.76706H100.308V0.676147H83.5355V23.9489ZM130.362 12.3125C130.362 19.5852 125.862 23.9489 118.771 23.9489H109.817V0.676147H118.68C125.862 0.676147 130.362 5.03978 130.362 12.3125ZM116.135 6.03978V18.5852H118.544C121.999 18.5852 123.999 17.1761 123.999 12.3125C123.999 7.44888 121.999 6.03978 118.362 6.03978H116.135ZM137.862 23.9489L139.203 19.4943H146.885L148.226 23.9489H155.044L147.362 0.676147H138.726L131.044 23.9489H137.862ZM140.635 14.7671L142.953 7.08524H143.135L145.453 14.7671H140.635ZM157.286 0.676147H163.604V23.9489H157.286V0.676147ZM166.598 23.9489H182.325V18.858H172.916V0.676147H166.598V23.9489ZM188.251 16.6307L179.706 0.676147H186.751L191.297 10.1307H191.479L196.024 0.676147H203.07L194.524 16.6307V23.9489H188.251V16.6307ZM29.1719 49.9489C29.1719 59.9489 22.9844 65.9489 13.2344 65.9489H0.921875V33.9489H13.1094C22.9844 33.9489 29.1719 39.9489 29.1719 49.9489ZM9.60938 41.3239V58.5739H12.9219C17.6719 58.5739 20.4219 56.6364 20.4219 49.9489C20.4219 43.2614 17.6719 41.3239 12.6719 41.3239H9.60938ZM56.1914 65.9489H33.1914V33.9489H56.2539V40.9489H41.8789V46.4489H55.0664V53.4489H41.8789V58.9489H56.1914V65.9489ZM60.5625 65.9489H75.625C82.5781 65.9489 86.875 62.152 86.875 56.8864C86.875 52.3707 83.5469 49.4176 79.4375 49.2614V48.9489C83.1406 48.2145 85.625 45.4801 85.625 41.9489C85.625 37.0739 81.75 33.9489 74.4375 33.9489H60.5625V65.9489ZM69.25 59.0114V52.2614H73.4375C76.0781 52.2614 77.6875 53.5114 77.6875 55.7614C77.6875 57.902 76.2344 59.0114 73.3125 59.0114H69.25ZM69.25 46.8864V40.7614H72.9375C75.0938 40.7614 76.6875 41.8551 76.6875 43.8239C76.6875 45.7926 75.0938 46.8864 72.8125 46.8864H69.25ZM103.766 58.8239C106.75 58.8239 108.891 56.6832 108.891 53.6989V33.9489H117.578V54.4489C117.578 61.7614 111.984 66.3239 103.766 66.3239C95.4844 66.3239 89.9531 61.7614 89.9531 54.4489V33.9489H98.6406V53.6989C98.6406 56.6832 100.781 58.8239 103.766 58.8239ZM149.395 33.9489H140.707V50.6989H140.457L129.082 33.9489H121.707V65.9489H130.395V49.1364H130.582L142.145 65.9489H149.395V33.9489ZM162.191 65.9489H153.504V33.9489H162.191V46.8864H162.629L172.254 33.9489H182.379L171.566 48.1989L182.629 65.9489H172.254L165.066 53.9489L162.191 57.6989V65.9489ZM184.957 65.9489H207.957V58.9489H193.645V53.4489H206.832V46.4489H193.645V40.9489H208.02V33.9489H184.957V65.9489ZM221.016 65.9489H212.328V33.9489H226.141C233.25 33.9489 238.016 38.0114 238.016 44.8239C238.016 49.2614 235.984 52.3707 232.578 54.0114L239.078 65.9489H229.641L224.016 55.3864H221.016V65.9489ZM221.016 40.8864V48.6364H224.078C227.125 48.6364 228.953 47.5582 228.953 44.8239C228.953 42.0739 227.125 40.8864 224.078 40.8864H221.016Z" fill="black"/>
</svg>
